svg/fluentui-system-icons/ic_fluent_tap_single_32_regular.svg

<svg width="32" height="32" viewBox="0 0 32 32" fill="none" xmlns="http://www.w3.org/2000/svg">
<path d="M16 5C12.6863 5 10 7.68629 10 11C10 12.3023 10.4149 13.5077 11.1198 14.4912C10.3863 14.476 9.66549 14.6092 8.99747 14.8714C8.36188 13.7243 8 12.4044 8 11C8 6.58172 11.5817 3 16 3C20.4183 3 24 6.58172 24 11C24 11.895 23.853 12.7556 23.5819 13.5591C23.408 13.5073 23.2298 13.4635 23.0477 13.4283L21.6037 13.1489C21.8597 12.4817 22 11.7573 22 11C22 7.68629 19.3137 5 16 5ZM15.0023 11C15.0023 10.4477 15.45 10 16.0023 10C16.5546 10 17.0023 10.4477 17.0023 11V15C17.0023 15.479 17.342 15.8908 17.8123 15.9818L22.3817 16.866C23.5258 17.0874 24.2391 18.2362 23.9301 19.3599L22.4106 24.8853C22.2992 25.2905 21.9464 25.5828 21.5276 25.6169L16.7686 26.0044C16.7686 26.0044 16.762 26.0022 16.7538 25.9965C16.7349 25.9834 16.711 25.9567 16.6968 25.9176C15.9152 23.7652 14.0172 21.1829 9.10557 19.3633C9.46891 18.2652 10.6976 17.696 11.7784 18.1502L13.6149 18.9219C13.9236 19.0516 14.2768 19.0182 14.5557 18.8329C14.8347 18.6475 15.0023 18.3349 15.0023 18V11ZM16.0023 8C14.3454 8 13.0023 9.34315 13.0023 11V16.4951L12.5533 16.3064C10.3222 15.3688 7.77606 16.6117 7.14293 18.9475L7.05279 19.2801C6.84144 20.0598 7.28534 20.8419 8.01589 21.0968C12.7552 22.7505 14.2434 25.0211 14.817 26.6003C15.1161 27.424 15.933 28.0791 16.9304 27.9978L21.6899 27.6103C22.9463 27.508 24.0048 26.6311 24.339 25.4157L25.8585 19.8902C26.4766 17.6429 25.05 15.3453 22.7617 14.9024L19.0023 14.175V11C19.0023 9.34315 17.6591 8 16.0023 8Z" fill="#212121"/>
</svg>

<svg xmlns="http://www.w3.org/2000/svg" width="32" height="32"><path d="M16 5a6 6 0 0 0-4.88 9.491 5.498 5.498 0 0 0-2.123.38 8 8 0 1 1 14.584-1.312 5.582 5.582 0 0 0-.533-.13l-1.444-.28A6 6 0 0 0 16 5Zm-.998 6a1 1 0 1 1 2 0v4a1 1 0 0 0 .81.982l4.57.884a2 2 0 0 1 1.548 2.494l-1.52 5.525a1 1 0 0 1-.882.732l-4.76.387s-.006-.002-.014-.008a.166.166 0 0 1-.057-.078c-.782-2.153-2.68-4.735-7.591-6.555a2 2 0 0 1 2.672-1.213l1.837.772A1 1 0 0 0 15.002 18v-7Zm1-3a3 3 0 0 0-3 3v5.495l-.449-.189a4 4 0 0 0-5.41 2.642l-.09.332a1.51 1.51 0 0 0 .963 1.817c4.74 1.653 6.227 3.924 6.801 5.503.3.824 1.116 1.48 2.113 1.398l4.76-.388a3 3 0 0 0 2.649-2.194l1.52-5.526a4 4 0 0 0-3.097-4.988l-3.76-.727V11a3 3 0 0 0-3-3Z"/></svg>
